X: 1
T: March Of The Kings Of Laois
R: jig
M: 6/8
L: 1/8
K: Dmix
A2F A2D|A2F A2D|B2G A2F|G2F E>FG|
A2F A2D|A2F A2d|B2d A>dG|F>dF E2D|F>ED G>FE|
A3 A>GF|E>cG E>CE|G>cG E>CE|D>ED D>ED|D>ED D3:|
|:B2G d2G|B>AG d2G|A2d A2d|F2d A>dA|
B2d d>BA|G>FG E>FG|F>ED G>AB|A3 AGF|
E>cG E>CE|G>cG E>CE|D>ED D>ED|D>ED D3:|


Tune 835	Setting 24772

